!!!!SEGMENT: pl-wumfc--r313--004_paderewski-ignacy-jan--vocal-pieces-op-7-chlopca-mego-mi-zabrali.krn
!!!cenid: 18xx:3389
!!!COM: Paderewski, Ignacy Jan
!!!COM-rismid: pe30029943
!!!CDT: 1860/11/18-1941/06/29
!!!CNT: Polish
!!!GTL: [Vocal pieces op. 7]
!!!OTL: Chłopca mego mi zabrali
!!!PDT:
!!!AGN:
!!!SMS-siglum: PL-Wumfc
!!!SMS-shelfmark: R313
!!!SMS-shelfwork: 004 G
!!!SMS-variant:
!!!SMS-altvar:
!!!NIFC-rismid: 1001159538
!!!URL-scan: http://repozytorium.nifc.pl/skany/pl-wumfc--r313
!!!ONB-nifc:
**kern	**kern	**dynam	**kern	**text	**text	**dynam
*part2	*part2	*part2	*part1	*part1	*part1	*part1
*staff3	*staff2	*	*staff1	*staff1	*staff1	*
*I"Piano	*	*	*I"Voce	*	*	*
*I'P-no	*	*	*I'V.	*	*	*
*clefF4	*clefG2	*	*clefG2	*	*	*
*k[b-e-]	*k[b-e-]	*	*k[b-e-]	*	*	*
*g:	*g:	*	*g:	*	*	*
*M2/4	*M2/4	*	*M2/4	*	*	*
=1	=1	=1	=1	=1	=1	=1
*^	*	*	*	*	*	*
!	!	!	!	!LO:TX:a:B:t=Andantino	!	!	!
!	!	!	!	!LO:TX:t=P:problem:brak podanego metrum	!	!	!
4D/ 4G 4B-	2GG\	4B-/ 4d	.	8g/	Chło-	Nah-	.
.	.	.	.	8g/	-pca	-men	.
4E-/ 4G	.	4c/	.	8a/	me-	ihn	.
.	.	.	.	8cc\	-go	mir	.
=2	=2	=2	=2	=2	=2	=2	=2
4D/ 4G 4B-	2GG\	4d/	.	8b-\	mi	mei-	.
.	.	.	.	8a/	za-	-nen	.
4E-/ 4G 4B-	.	4e-/	.	8g/	-bra-	Lie-	.
.	.	.	.	8b-\	-li	-ben,	.
=3	=3	=3	=3	=3	=3	=3	=3
!	!	!LO:TX:t=P:problem:ubytki	!	!	!	!	!
4D/ 4A	[4GG\	4B-/ 4d 4f	.	4dd\	Ma-	mein	.
4ryy	4GGG\ 4GG]	4A^/ 4c 4g	.	(8cc\L	-tu-	Mutt-	.
.	.	.	.	8g\J)	.	.	.
*v	*v	*	*	*	*	*	*
=4	=4	=4	=4	=4	=4	=4
2GGG/ 2GG 2G 2B-	2g/	.	4.g/	-lu!	-chen!	.
.	.	.	8r	.	.	.
=5	=5	=5	=5	=5	=5	=5
4GG\ 4D 4G 4B-	4d/	.	8g/	Wświat	Ha-	.
.	.	.	8g/	da-	-ben	.
4FF\ 4F 4A 4c	4f/	.	8a/	-le-	ihn	.
.	.	.	8cc\	-ki	weit	.
=6	=6	=6	=6	=6	=6	=6
4BB-\ 4F	4B-/ 4d 4f	.	8b-\	go	weg-	.
.	.	.	8cc\	po-	-ge-	.
4GG\ 4G	4d/ 4en 4b-	.	8dd\	-gna-	-trie-	.
.	.	.	8een\	-li	-ben,	.
=7	=7	=7	=7	=7	=7	=7
*^	*	*	*	*	*	*
4A\	4D\	4d/ 4f 4a	.	8ff\	A	Jam-	.
.	.	.	.	8ff\	ja	-mer	.
4A/	[4DD^\ [4AA	4g/ 4a	.	8een\	za	wohnt	.
.	.	.	.	8cc#X\	nim	in	.
=8	=8	=8	=8	=8	=8	=8	=8
*	*	*^	*	*	*	*	*
4A/	2DD\] 2AA]	4a/	4f\	.	(8dd\L	u-	un-	.
.	.	.	.	.	16cc\L	.	.	.
.	.	.	.	.	16b-\J	.	.	.
4ryy	.	8a/L	8g\L	.	8a\J)	.	.	.
.	.	8a/J	8e-\J	.	8a/	-mrę	-sern	.
*v	*v	*	*	*	*	*	*	*
=9	=9	=9	=9	=9	=9	=9	=9
!	!LO:TX:b:i:t=cresc.	!	!	!	!	!	!
4DD\ 4AA	8a/	4f\	.	[2a/	z bó-	Hütt-	.
.	(8ff/L	.	.	.	.	.	.
4A\	8ee-/	4g\	.	.	.	.	.
.	8cc#X/J	.	.	.	.	.	.
=10	=10	=10	=10	=10	=10	=10	=10
4.DD\ 4.AA	8dd/L	4f\	.	4a/]	.	.	.
.	16cc/L	.	.	.	.	.	.
.	16b-/J	.	.	.	.	.	.
.	8a/)	8g\L	.	8a/	-lu	-chen.	.
8AA\	8a/J	8e-\J	.	8r	.	.	.
*	*v	*v	*	*	*	*	*
=11	=11	=11	=11	=11	=11	=11
2DD/ 2AA 2D	2d/ 2a 2dd	.	8d/	Da-	Go-	.
.	.	.	8d/	-łam	-ttes	.
.	.	.	8e-X/	na	Trost	.
.	.	.	8g/	mszę	ist	.
=12	=12	=12	=12	=12	=12	=12
8Dv\L	8dv/L	.	8f#X/	sznur	nur	.
(8D\	(8d/	<	8f#/	ko-	geb-	.
8E-X\	8e-X/	.	8g/	-ra-	-lie-	.
8G\J)	8g/J)	.	8b-/	-li	-ben,	.
=13	=13	=13	=13	=13	=13	=13
2G-X\	2g-X/	[	8a/	Nie-	möcht	.
.	.	.	8b-/	-chaj	Er	.
.	.	.	8cc\	Pan	schü-	.
.	.	.	8ee-\	Bóg	-tzen	.
=14	=14	=14	=14	=14	=14	=14
!	!	!LO:DY:a	!	!	!	!
!	!	!LO:DY:a	!	!	!	!
4.CC\ 4.C	4.e-\ 4.b- 4.ee-	sf sf	8dd\	go	auch	.
.	.	.	8cc\	o-	den	.
.	.	.	8b-/	-ca-	Lie-	.
8FF\ 8F 8A	8e-/ 8f	.	8a/	-li	-ben,	.
=15	=15	=15	=15	=15	=15	=15
4BB-\ 4F	4d/ 4f 4dd	.	4b-\	Ma-	o	.
4DD/ 4D 4F#X	4c/ 4d 4f#X	.	(8a/L	-tu-	Mutt-	.
.	.	.	8f#X/J)	.	.	.
=16	=16	=16	=16	=16	=16	=16
8GG\ 8D 8G	8B-;/ 8d 8g	.	2g/	-lu	-chen!	.
(8d\L	(8dd\L	p	.	.	.	.
8e-\	8ee-\	.	.	.	.	.
16d\L	16dd\L	.	.	.	.	.
16c\JJ)	16cc\JJ)	.	.	.	.	.
=17	=17	=17	=17	=17	=17	=17
8B-\L	8b-/L	.	2r	.	.	.
(8B-\	(8b-/	.	.	.	.	.
8c\	8cc/	.	.	.	.	.
16B-\L	16b-/L	.	.	.	.	.
16G\JJ)	16g/JJ)	.	.	.	.	.
=18	=18	=18	=18	=18	=18	=18
!	!	!	!LO:TX:a:t=animato.	!	!	!
8E-\	8G/L 8B- 8g	.	8b-\	Do	Ein	.
(32EE-\LLL	8G/J 8B- 8g	<	8b-\	sze-	ge-	.
32BB-\	.	.	.	.	.	.
32DD\	.	.	.	.	.	.
32BB-\JJJ)	.	.	.	.	.	.
8AA-X\	8A-X/L 8c 8e-	[	8cc\	-re-	-reiht	.
(32EE-\LLL	8A-/J 8c 8f	<	(16b-\LL	-gu	steht	.
32AAA-X\	.	.	.	.	.	.
32EE-\	.	.	16a-X\JJ)	.	.	.
32AAA-\JJJ	.	[[	.	.	.	.
=19	=19	=19	=19	=19	=19	=19
8EE-\)	8G/L 8B- 8g	.	8b-\	po-	er	.
(32EE-\LLL	8G/J 8B- 8g	<	8b-\	-szedł	in	.
32BB-\	.	.	.	.	.	.
32EE-\	.	.	.	.	.	.
32BB-\JJJ	.	.	.	.	.	.
8AA-X\)	8A-X/L 8c 8e-	.	8cc\	z bro-	Waf-	.
(32DD\LLL	8A-/J 8c 8f	[	(16b-\LL	-nią	-fen,	.
32D\	.	.	.	.	.	.
32DD\	.	.	16a-X\JJ)	.	.	.
32D\JJJ	.	.	.	.	.	.
=20	=20	=20	=20	=20	=20	=20
8GG\L)	8G/ 8Bn 8g	.	4g/	Mój	o	.
(32GG\LL	8f/L 8a-X 8dd	.	.	.	.	.
32G\	.	.	.	.	.	.
32GG\	.	.	.	.	.	.
(32G\JJJ	.	.	.	.	.	.
4D\)) 4G	([8f/ 8a- 8ee-	.	(4g/	Bo-	Zeim-	.
.	16dd/L	.	.	.	.	.
.	16bn/JJ	.	.	.	.	.
=21	=21	=21	=21	=21	=21	=21
*	*^	*	*	*	*	*
(8GGG\	8dd/	8f\]) 8a	.	4g/)	.	.	.
32GG\LLL	8dd/	8f\ 8a-X	.	.	.	.	.
32G\	.	.	.	.	.	.	.
32GG\	.	.	.	.	.	.	.
(32G\JJJ)	.	.	.	.	.	.	.
4D\) 4G	(8ee-^/L	4f\ 4a-	.	8g/	-że	-mel,	.
.	16dd/L	.	.	8r	.	.	.
.	16bn/JJ)	.	.	.	.	.	.
*	*v	*v	*	*	*	*	*
=22	=22	=22	=22	=22	=22	=22
!	!LO:TX:a:t=marcato	!	!	!	!	!
(8EE-\ 8C	16r	.	8gg\	Tam	was	.
.	16g\ 16ee- 16gg	.	.	.	.	.
8D\L	16r	.	8ff\	śmierć	kann	.
.	16G/ 16f 16g	.	.	.	.	.
8E-\	16r	.	8ee-\	pe-	ich	.
.	16g\ 16ee- 16gg	.	.	.	.	.
8G\J	16r	.	8dd\	-wna	da-	.
.	16Bn/ 16f 16g	.	.	.	.	.
=23	=23	=23	=23	=23	=23	=23
8G\L	16r	.	8cc\	po-	-ge-	.
.	16e-/ 16g 16cc	.	.	.	.	.
8An\J	16r	.	8cc\	-szedł-	-gen	.
.	16c/ 16f 16g	.	.	.	.	.
4Bn\)	16r	.	8ee-\	-po-	schaf-	.
.	16e-/ 16f 16g	.	.	.	.	.
.	16r	.	8g/	-nią	-fen,	.
.	16d/ 16f 16g	.	.	.	.	.
=24	=24	=24	=24	=24	=24	=24
*	*^	*	*	*	*	*
8r	16r	4c^\	.	8cc\	mi-	wenn	.
.	16e-/ 16g 16cc	.	.	.	.	.	.
4E-\	16r	.	.	8b-\	-łość	er	.
.	16e-/ 16g 16cc	.	.	.	.	.	.
.	16r	4e-^\	.	8a/	mo-	fällt	.
.	16g/ 16cc 16ee-	.	.	.	.	.	.
[8EE-/	16r	.	.	8g/	-ja	im	.
.	16g/ 16cc 16ee-	.	.	.	.	.	.
=25	=25	=25	=25	=25	=25	=25	=25
8EE-/]	16r	2g-X\	.	8g-X/	nic	Sicht	.
.	16b-/ 16ee- 16gg-X	.	.	.	.	.	.
!	!LO:N:vis=4	!	!	!	!	!	!
4.EE-\	16r	.	.	8g-/	nie	icht	.
.	16b-/ 16ee- 16gg-	.	.	.	.	.	.
!	!	!	!	!LO:TX:a:t=ritar.	!	!	!
.	4b-/ 4ee- 4gg-	.	.	8b-\	mo-	gefüm-	.
.	.	.	.	8c/ 8e-	-że	-mel,	.
*	*v	*v	*	*	*	*	*
=26	=26	=26	=26	=26	=26	=26
!	!LO:TX:a:t=Piu lento	!	!	!	!	!LO:DY:a
4E-X\ 4G-X	4B-/ 4e- 4g-X	.	8g-X/	a-	mei-	p
!	!	!	!LO:TX:a:t=doloroso.	!	!	!
.	.	.	8g-/	-ni	-ne	.
4D-X\ 4G- 4B-	4f-X/ 4g-	.	8a-X/	łzy	Thra-	.
.	.	.	8b-/	go	-nen	.
=27	=27	=27	=27	=27	=27	=27
*^	*	*	*	*	*	*
4G-X/ 4c-X	4C-X\	4e--/ 4g-X	.	8cc-X\	nie	eit-	.
.	.	.	.	8ee--\	za-	-le	.
4G-/ 4d-X	4BB--\	4g-/	.	8dd-X\	-sło-	Waf-	.
.	.	.	.	8g-X/	-nią	-fen,	.
=28	=28	=28	=28	=28	=28	=28	=28
2G-X/	2AA-X\	2cn/ 2g-X	.	8g-X/	Przed	will	.
.	.	.	.	8g-/	za-	der	.
.	.	.	.	8ee-\	-wis-	Tod	.
.	.	.	.	8ee-\	-tnej	ihn	.
=29	=29	=29	=29	=29	=29	=29	=29
2F/ 2c	4AA-X\	2f/	.	8dd\	śmier-	mit	.
.	.	.	.	8cc\	-ci	sich	.
.	4DD\	.	.	8b-\	dło-	raf-	.
.	.	.	.	8a-X/	-nią	-fen,	.
*v	*v	*	*	*	*	*	*
=30	=30	=30	=30	=30	=30	=30
8GG\	8G/ 8Bn 8g	.	4g/	Mój	O	.
(8d\	(8dd\L	.	.	.	.	.
8g\L	8gg\	.	[4g/	Bo-	Him-	.
16f\L	16ff\L	.	.	.	.	.
16e-\JJ	16ee-\JJ	.	.	.	.	.
=31	=31	=31	=31	=31	=31	=31
8f\L)	8ff\L)	.	4g/]	.	.	.
8d\	(8dd\	.	.	.	.	.
8e-\	8ee-\	.	4g/	-że	-mel!	.
16d\L	16dd\L	.	.	.	.	.
16c\JJ	16cc\JJ	.	.	.	.	.
=32	=32	=32	=32	=32	=32	=32
8d\	4dd\)	.	2r	.	.	.
!	!	!LO:DY:a	!	!	!	!
(8D\L	.	<	.	.	.	.
8E-\	(8cc\L	.	.	.	.	.
8F#X\J)	16b-\L	[[	.	.	.	.
.	16a\JJ)	.	.	.	.	.
=33	=33	=33	=33	=33	=33	=33
*	*^	*	*	*	*	*
4G\	(8b-/L	4d\	.	2r	.	.	.
.	8g/)	.	.	.	.	.	.
4E-\	(8cc/	4c\	.	.	.	.	.
.	8g/J)	.	.	.	.	.	.
*	*v	*v	*	*	*	*	*
=34	=34	=34	=34	=34	=34	=34
2D\ 2A	2d/ 2f#X 2a	p	2r	.	.	.
=35	=35	=35	=35	=35	=35	=35
2DD/ 2AA 2D 2A	2d/ 2f#X 2a	pp	2r	.	.	.
=36	=36	=36	=36	=36	=36	=36
!	!	!LO:DY:a	!LO:TX:a:t=Tempo I	!	!	!
8GG'\L	4G/ 4B- 4g	pp	8g/	Nie	Schwer-	.
8G'\	.	.	8g/	py-	-lich	.
8F'\	4A/ 4c	.	8a/	-ta-	wird	.
(16En\L	.	.	8cc/	-ją	der	.
16E-X\JJ	.	.	.	.	.	.
=37	=37	=37	=37	=37	=37	=37
8D\L)	8B-/L 8d	.	8b-/	o	Feind	.
8C'\	8c/J 8e-	.	8a/	to	be-	.
8BB-'\	4d/ 4g	.	8g/	wro-	-kla-	.
8GG'\J	.	.	8b-\	-gi	-gen	.
=38	=38	=38	=38	=38	=38	=38
8GGG\L	4B-/ 4g 4b-	.	4dd\	Kto	den	.
8GG\J	.	.	.	.	.	.
(16E-\LL	4a/ 4cc 4gg	.	8cc\L	gi-	Ta-	.
16GG\	.	.	.	.	.	.
16E-\	.	.	8g\J	.	.	.
16GG\JJ)	.	.	.	.	.	.
=39	=39	=39	=39	=39	=39	=39
8G\L	4g/ 4b- 4gg	.	4.g/	-nie	-dten,	.
8d\J	.	.	.	.	.	.
4r	8g/L	.	.	.	.	.
.	16f/L	.	8r	.	.	.
.	16e-/JJ	.	.	.	.	.
=40	=40	=40	=40	=40	=40	=40
(8GG\L	4B-/ 4d	.	8g/	Czy	A-	.
8G\	.	.	8g/	jest	-ber	.
8F\	4A/ 4c 4f	.	8a/	ser-	Freund	.
16En\L	.	.	8cc\	-com	und	.
16E-X\JJ)	.	.	.	.	.	.
=41	=41	=41	=41	=41	=41	=41
8D\L	4B-/ 4d 4f	.	8b-\	lu-	Schwe-	.
8C\	.	.	8cc\	-dzkim	-ster	.
8BB-\	4B-/ 4d 4g 4b-	.	8dd\	dro-	tra-	.
8GG\J	.	.	8een\	-gi?	-gen	.
=42	=42	=42	=42	=42	=42	=42
4DD/ 4AA	8A/L 8d 8f 8a	.	8ff\	Czy	Herz-	.
.	8A/J	.	8ff\	płacz	-lein	.
4g^\	4a/ 4aa	.	8een\	sio-	um	.
.	.	.	8cc#X\	-stry	den	.
=43	=43	=43	=43	=43	=43	=43
4DD/ 4AA	4A/ 4d 4f 4a	.	(8dd\L	za-	Tod	.
.	.	.	16cc\L	.	.	.
.	.	.	16b-\J	.	.	.
8g\L	8a/L 8aa	.	8a\J)	.	.	.
8en\J	8a/J 8aa	.	8a'/	-nim	be-	.
=44	=44	=44	=44	=44	=44	=44
*	*^	*	*	*	*	*
4DD/ 4AA	8ff/L	4f\ 4a	.	[2a/	pły-	-droh-	.
.	8ff/	.	.	.	.	.	.
4B-^\	8een/	4g\	.	.	.	.	.
.	8cc#X/J	.	.	.	.	.	.
=45	=45	=45	=45	=45	=45	=45	=45
4DD/ 4AA	8dd/L	4f\	.	4a/]	.	.	.
.	16ccn/L	.	.	.	.	.	.
.	16b-/J	.	.	.	.	.	.
4A\	8a/J	8g\L	.	8a/	-nie	-ten	.
.	8a/	8e-\J	.	8r	.	.	.
*	*v	*v	*	*	*	*	*
=46	=46	=46	=46	=46	=46	=46
2DD\ 2AA 2D	2d/ 2a 2dd	.	8d/	Czy	Um	.
.	.	.	8d/	u-	die	.
.	.	.	8e-/	-mie-	Mut-	.
.	.	.	8g/	-ra	-ter	.
=47	=47	=47	=47	=47	=47	=47
8D\L	8d/L	.	8f#X/	ma-	stirbt	.
(8D\	(8d/	.	8f#/	-tka	vor	.
8E-\	8e-/	.	8g/	z trwo-	Za-	.
8G\J)	8g/J)	.	8b-/	-gi	-gen,	.
=48	=48	=48	=48	=48	=48	=48
2G-X\	2g-X/	.	8a/	Kie-	kann	.
.	.	.	8b-/	-dy	sie	.
.	.	.	8cc\	py-	ihn	.
.	.	.	8ee-\	-ta	nicht	.
=49	=49	=49	=49	=49	=49	=49
4.CC\ 4.C	4.e-\ 4.b- 4.ee-	.	8dd\	śmier-	mehr	.
.	.	.	8cc\	-ci	er	.
.	.	.	8b-\	sro-	fra-	.
8FF\	8A/ 8e- 8f	.	8a/	-giej	-gen,	.
=50	=50	=50	=50	=50	=50	=50
4BB-\ 4F	4d/ 4f 4dd	.	4b-/	Kto	den	.
4DD\ 4D 4F#X	4c/ 4d 4f#X	.	(8a/L	gi-	To-	.
.	.	.	8f#X/J)	.	.	.
=51	=51	=51	=51	=51	=51	=51
8GG\ 8D 8G	8B-;/ 8d 8g	.	2g/	-nie	-dten!	.
(8d\L	(8dd\L	.	.	.	.	.
8e-\	8ee-\	.	.	.	.	.
16d\L	16dd\L	.	.	.	.	.
16c\JJ	16cc\JJ	.	.	.	.	.
=52	=52	=52	=52	=52	=52	=52
8B-\L)	8b-\L)	.	2r	.	.	.
(8B-\	(8b-\	.	.	.	.	.
8c\	8cc\	.	.	.	.	.
16B-\L	16b-\L	.	.	.	.	.
16G\JJ)	16g\JJ)	.	.	.	.	.
=53	=53	=53	=53	=53	=53	=53
8E-\	8G/L 8B- 8g	.	8b-\	Na	Ku-	.
(32EE-\LLL	8G/J 8B- 8g	.	8b-\	ku-	-geln	.
32BB-\	.	.	.	.	.	.
32EE-\	.	.	.	.	.	.
32BB-\JJJ	.	.	.	.	.	.
8AA-X\)	8A-X/L 8c 8e-	.	8cc\	-la-	flo-	.
(32EE-\LLL	8A-/J 8c 8e-	.	(16b-\LL	-mi	-gen	.
32AAA-X\	.	.	.	.	.	.
32EE-\	.	.	16a-X\JJ)	.	.	.
32AAA-\JJJ	.	.	.	.	.	.
=54	=54	=54	=54	=54	=54	=54
8EE-\)	8G/L 8B- 8g	.	8b-\	za-	dicht	.
(32EE-\LLL	8G/J 8B- 8g	.	8b-\	-o-	um	.
32BB-\	.	.	.	.	.	.
32EE-\	.	.	.	.	.	.
32BB-\JJJ	.	.	.	.	.	.
8AA-X\)	8A-X/L 8c 8e-	.	8cc\	-ra-	meih-	.
(32DD\LLL	8A-/J 8c 8e-	.	(16b-\LL	-nej	-ten	.
32D\	.	.	.	.	.	.
32DD\	.	.	16a-X\JJ)	.	.	.
32D\JJJ	.	.	.	.	.	.
=55	=55	=55	=55	=55	=55	=55
8GG\)	8G/ 8Bn 8g	.	4g/	na	den	.
(32GG\LLL	8f/L 8a-X 8dd	.	.	.	.	.
32G\	.	.	.	.	.	.
32GG\	.	.	.	.	.	.
32G\JJJ	.	.	.	.	.	.
4D\) 4G	[8f^/ [8a- 8ee-	.	[4g/	ro-	Ot-	.
.	16dd/L	.	.	.	.	.
.	16bn/JJ	.	.	.	.	.
=56	=56	=56	=56	=56	=56	=56
(8GGG\L	8f/] 8a-] 8dd	.	4g/]	.	.	.
32GG\LL	8f/ 8a-X 8dd	.	.	.	.	.
32G\	.	.	.	.	.	.
32GG\	.	.	.	.	.	.
[32G\JJJ)	.	.	.	.	.	.
4D\ 4G]	8f^/L 8a- 8ee-	.	4g/	-li	-cker.	.
.	(16dd/L	.	.	.	.	.
.	16bn/JJ)	.	.	.	.	.
=57	=57	=57	=57	=57	=57	=57
8EE-\L 8C	16r	.	8gg\	Ma	Him-	.
.	16g/ 16ee- 16gg	.	.	.	.	.
8D\	16r	.	8ff\	paść	-mel!	.
.	16G/ 16f 16g	.	.	.	.	.
8E-\	16r	.	8ee-\	we	hör	.
.	16g/ 16cc 16gg	.	.	.	.	.
8G\J	16r	.	8dd\	krwi	mein	.
.	16Bn/ 16f 16g	.	.	.	.	.
=58	=58	=58	=58	=58	=58	=58
8G\L	16r	.	8cc\	mój	brün-	.
.	16e-/ 16g 16cc	.	.	.	.	.
8A\J	16r	.	8cc\	ko-	-stig	.
.	16c/ 16f 16g	.	.	.	.	.
4Bn\	16r	.	8ee-\	-cha-	Be-	.
.	16e-/ 16f 16g	.	.	.	.	.
.	16r	.	8g/	-ny	-ten,	.
.	16d/ 16f 16g	.	.	.	.	.
=59	=59	=59	=59	=59	=59	=59
*	*^	*	*	*	*	*
8r	16r	4c^\	.	8cc\	Czy-	Gott,	.
.	16e-/ 16g 16cc	.	.	.	.	.	.
4E-\	16r	.	.	8b-\	-liż	er-	.
.	16e-/ 16g 16cc	.	.	.	.	.	.
.	16r	4e-^\	.	8a/	na	-hal-	.
.	16g/ 16cc 16ee-	.	.	.	.	.	.
[8EE-/	16r	.	.	8g/	to	-te	.
.	16g/ 16cc 16ee-	.	.	.	.	.	.
=60	=60	=60	=60	=60	=60	=60	=60
8EE-/]	16r	2g-X\	.	8g-X/	Bóg	mir	.
.	16b-/ 16ee- 16gg-X	.	.	.	.	.	.
4.EEE-\	16r	.	.	8g-/	po-	ihn	.
.	16b-/ 16ee- 16gg-	.	.	.	.	.	.
.	4b-/ 4ee- 4gg-	.	.	8.b-/	-zwo-	wac-	.
.	.	.	.	16c/ 16e-	-li	-ker,	.
*	*v	*v	*	*	*	*	*
=61	=61	=61	=61	=61	=61	=61
!	!	!	!LO:TX:a:B:t=Piu lento	!	!	!
4E-X\ 4G-X	4B-/ 4e- 4f-X 4g-X	.	8g-X/	By	Daſs	.
.	.	.	8g-/	sa-	er	.
4D-X\ 4G- 4B-	4f-X/ 4g-	.	8a-X/	-mot-	nicht	.
.	.	.	8b-/	-nie	in	.
=62	=62	=62	=62	=62	=62	=62
4C-X\ 4G-X 4c-X	4e--/ 4g-X	.	8cc-X\	gi-	Blut	.
.	.	.	8ee--\	-nął	und	.
4BB--\ 4G-	4d-X/ 4g-	.	8dd-X\	z	Nöt-	.
.	.	.	8g-X/	rany	-hen	.
=63	=63	=63	=63	=63	=63	=63
!	!LO:TX:a:i:t=ril	!	!	!	!	!
2AA-X\	2G-X/ 2cn 2g-X	.	8g-X/	Zda-	Eins	.
.	.	.	8g-/	-la	am	.
!	!	!	!LO:TX:a:t=ril.	!	!	!
.	.	.	8ee-\	two-	sterb'	.
.	.	.	8ee-\	-ich	auf	.
=64	=64	=64	=64	=64	=64	=64
[4DD\ 4AAn	2F#X/ 2c 2d 2f#X	.	8dd\	na	dem	.
.	.	.	8cc\	za-	be-	.
4DD\] [4D	.	.	8b-/	-sia-	-sä-	.
.	.	.	8a/	-nej	-ten	.
=65	=65	=65	=65	=65	=65	=65
4D\] 4G	4B-/ 4d 4f	.	4b-\	Krwią	Blut-	.
4D\ 4A	4d/ 4f#X 4dd	.	(8a/L	ro-	-a-	.
.	.	.	8f#X/J)	.	.	.
=66	=66	=66	=66	=66	=66	=66
8GG\ 8D 8G	8d/ 8g 8dd	.	4.g/	-li	-cker.	.
(8d\L	(8dd\L	.	.	.	.	.
8g\	8gg\	.	.	.	.	.
16f\L	16ff\L	.	8r	.	.	.
16e-\JJ	16ee-\JJ	.	.	.	.	.
=67	=67	=67	=67	=67	=67	=67
8d\L)	8dd\L)	.	2r	.	.	.
(8B-\	(8b-\	.	.	.	.	.
8c\	8cc\	.	.	.	.	.
16B-\L	16b-\L	.	.	.	.	.
16A\JJ	16a\JJ	.	.	.	.	.
=68	=68	=68	=68	=68	=68	=68
8G\)	8g/)	p	2r	.	.	.
8r	8G'/L 8g	.	.	.	.	.
4r	8G'/ 8g	.	.	.	.	.
.	8G'/J 8g	.	.	.	.	.
=69	=69	=69	=69	=69	=69	=69
2CC\ 2GG	8G/L 8en 8g	.	8g/	Spoj-	Jung-	.
.	8G/ 8e 8g	.	8g/	-rzyj	-frau,	.
.	8G/ 8e 8g	.	8a/	na	Kannst	.
.	8G/J 8e 8g	.	8cc\	nas	uns	.
=70	=70	=70	=70	=70	=70	=70
4GGG/ 4GG	8G/L 8B-	.	8b-\	Ty	Hil-	.
.	8G/J 8B- 8d	.	8a/	Pa-	-fe	.
4CC/ 4GG	8G/L 8c 8en	.	8g/	-nien-	sen-	.
.	8G/J 8c 8e	.	8cc\	-ko	-den,	.
=71	=71	=71	=71	=71	=71	=71
4EEn\	8G/L 8Bn 8en	.	4bn/	Prze-	du	.
.	8G/J 8B 8e	.	.	.	.	.
8AAA\L 8AA	8A/L 8c 8e	.	(8a/L	-czy-	Rei-	.
8DD\J	8A/J 8d 8f#X	.	8f#X/J)	.	.	.
=72	=72	=72	=72	=72	=72	=72
2GGG\ 2GG	8Bn/L 8g	.	4.g/	-sta	-ne,	.
.	8G/ 8g	.	.	.	.	.
.	8G/ 8g	.	.	.	.	.
.	8G/J 8g	.	8r	.	.	.
=73	=73	=73	=73	=73	=73	=73
4G\	8Bn/L 8d 8g	.	8g/	I	Mei-	.
.	8B/ 8d 8g	.	8g/	nad	-nem	.
4GG\	8c/ 8e- 8a	.	8a/	ser-	Jam-	.
.	8c/J 8e- 8a	.	8cc\	-ca	-mer	.
=74	=74	=74	=74	=74	=74	=74
2G\	8d/L 8g 8b-	.	8b-\	me-	dich	.
.	8d/ 8g 8cc	.	8a/	-go	zu	.
.	8d/ 8g 8dd	.	8g/	mę-	wen-	.
.	8e-/J 8g 8b- 8dd	.	8b-/	-ką	-den,	.
=75	=75	=75	=75	=75	=75	=75
4GG\	8en/L 8g 8b- 8dd	.	8dd\	Ty	Mitt-	.
.	8e/J 8g 8b- 8dd	.	8dd\	się	-lein,	.
4en\	8b-\L 8dd 8gg	.	8en/	sli-	du	.
.	8b-\J 8dd 8gg	.	8e/	-tuj	in	.
=76	=76	=76	=76	=76	=76	=76
4GG\	8en/L 8g 8b- 8dd	.	8dd\	o	Glo-	.
.	8e/J 8g 8b- 8dd	.	8dd\	gwieź-	-rien-	.
4en\	8b-\L 8dd 8gg	.	8en/	-dzi-	-schei-	.
.	8b-\J 8dd 8gg	.	8e/	-sta	-ne,	.
=77	=77	=77	=77	=77	=77	=77
[2G\	8a\L 8cc#X 8ff	.	8a/	nie-	Kün-	.
.	8g\J 8cc# 8ff	.	8a/	-bie-	-de-	.
.	8g\L 8cc# 8een	.	8a/	-skie-	-rin	.
.	8g\J 8cc# 8ee	.	8a/	-go	der	.
=78	=78	=78	=78	=78	=78	=78
2G\]	8f/L 8a 8dd	.	8dd\	dnia	Him-	.
.	8f/J 8a 8dd	.	8dd\	ju-	-mels	.
.	8f/L 8a-X 8cc	.	8cc\	-trze-	spen-	.
.	8f/J 8a- 8cc	.	8cc\	-nko	-den,	.
=79	=79	=79	=79	=79	=79	=79
4GG/	8d/L 8f 8a-X 8cc	.	8cc\	Ty	Mit-	.
.	8d/J 8f 8a- 8cc	.	8cc\	się	-leid,	.
4d^\	8a-\L 8cc 8ff	.	8d/	zli-	du	.
.	8a-\J 8cc 8ff	.	8d/	-tuj	in	.
=80	=80	=80	=80	=80	=80	=80
4GG/	8d/L 8f 8a-X 8cc	.	8cc\	o	Glo-	.
.	8d/J 8f 8a- 8cc	.	8cc\	gwie-	-rien-	.
4d\	8a-\L 8cc 8ff	.	8d/	-ździ-	-sche-	.
.	8a-\J 8cc 8ff	.	8d/	-sta	-ine	.
=81	=81	=81	=81	=81	=81	=81
[2G\	8g/L 8bn 8ee-	.	8g/	nie-	Kün-	.
.	8g/J 8b 8ee-	.	8g/	-bie-	-de-	.
.	8f/L 8b 8dd	.	8g/	-skie-	-rin	.
.	8f/J 8b 8dd	.	8g/	-go	der	.
=82	=82	=82	=82	=82	=82	=82
!	!	!	!LO:TX:a:t=rallent.	!	!	!
2G\]	8e-/L 8g 8cc	.	8cc\	dnia	Him-	.
.	8e-/J 8g 8cc	.	8cc\	ju-	-mels	.
.	8d/L 8g 8b-	.	8b-/	-tzre-	spen-	.
.	8c/J 8e-	.	8a/	-nko	-den!	.
=83	=83	=83	=83	=83	=83	=83
*^	*	*	*	*	*	*
!	!	!	!	!LO:TX:a:B:t=Piu lento.	!	!	!
4D/ 4G	2GG\	4B-/ 4d	.	8g/	O-	Schü-	.
.	.	.	.	8g/	-słoń	-tze	.
4E-/	.	4G/ 4c	.	8a/	je-	ihn	.
.	.	.	.	8cc\	-go	mit	.
=84	=84	=84	=84	=84	=84	=84	=84
4E-/ 4G	2GG\	4B-/ 4d	.	8b-\	two-	dei-	.
.	.	.	.	8a/	-ją	-nen	.
4E-/	.	4G/ 4B- 4e-	.	8g/	rę-	Hän-	.
.	.	.	.	8a/	-ką	-den,	.
*v	*v	*	*	*	*	*	*
=85	=85	=85	=85	=85	=85	=85
4FF\ 4D 4G	4B-/ 4d 4g	.	4b-/	Prze-	du	.
4DD\ 4D	4A/ 4d 4f#X 4a	.	(8a/L	-czy-	Rei-	.
.	.	.	8f#X/J)	.	.	.
=86	=86	=86	=86	=86	=86	=86
2GG:/ 2D: 2G:	2Bn;:/ 2d: 2g: 2bn:	.	4.g;/	-sta	-ne!	.
.	.	.	8r	.	.	.
==	==	==	==	==	==	==
*-	*-	*-	*-	*-	*-	*-
!!!system-decoration: s1{(s2,s3)}
!!!ENC:Marta Opryszak
!!!END:2021-12-03
